icons/1_Primary/Fauna.svg

<svg width="1024" height="1024" fill="none" xmlns="http://www.w3.org/2000/svg"><g clip-path="url(#a)"><path d="M512 1024c282.77 0 512-229.23 512-512S794.77 0 512 0 0 229.23 0 512s229.23 512 512 512Z" fill="#728DBE"/><path d="M673.68 373c-33.9 11.32-50.22 31.61-61.35 63.22-2.87 8.44-10 17.78-18.12 24.07L622 490.06l-88.25-61.79L290.18 258s17.58 114.23 23.68 156.26c4.3 29.64 11.66 42.93 35 56.4l9.33 5 40.18 21.19-23.86-12.39 110.14 60.17-.72 1.62-118.57-55c6.28 21.55 18.48 63 23.68 81.36 5.56 19.76 11.84 26.94 31 33.95l35.34 12.93 21.88-8.62-27.8 18.5L310.45 806c92.38-85.85 170.55-116.39 227.8-141.36 73-31.61 117-51.91 145.65-124.83 20.45-51.19 36.41-116.75 56.68-142.07l43.23-55.32s-89.5 23.71-110.13 30.58Z" fill="#fff"/></g><defs><clipPath id="a"><path fill="#fff" d="M0 0h1024v1024H0z"/></clipPath></defs></svg>

<svg width="1024" height="1024" viewBox="0 0 1024 1024" fill="none" xmlns="http://www.w3.org/2000/svg">
<g clip-path="url(#clip0_2_2175)">
<path d="M512 1024C794.77 1024 1024 794.77 1024 512C1024 229.23 794.77 0 512 0C229.23 0 0 229.23 0 512C0 794.77 229.23 1024 512 1024Z" fill="#728DBE"/>
<path d="M673.68 373C639.78 384.32 623.46 404.61 612.33 436.22C609.46 444.66 602.33 454 594.21 460.29L622 490.06L533.75 428.27L290.18 258C290.18 258 307.76 372.23 313.86 414.26C318.16 443.9 325.52 457.19 348.86 470.66L358.19 475.66L398.37 496.85L374.51 484.46L484.65 544.63L483.93 546.25L365.36 491.25C371.64 512.8 383.84 554.25 389.04 572.61C394.6 592.37 400.88 599.55 420.04 606.56L455.38 619.49L477.26 610.87L449.46 629.37L310.45 806C402.83 720.15 481 689.61 538.25 664.64C611.25 633.03 655.25 612.73 683.9 539.81C704.35 488.62 720.31 423.06 740.58 397.74L783.81 342.42C783.81 342.42 694.31 366.13 673.68 373Z" fill="white"/>
</g>
<defs>
<clipPath id="clip0_2_2175">
<rect width="1024" height="1024" fill="white"/>
</clipPath>
</defs>
</svg>
